X:1
T:6 Mélodies
T:O Ma Belle Rebelle!
T:2. Ô Ma Belle Rebelle!
T:Charles Gounod
T:Jean-Antoine de Baïf
T:6 Mélodies
T:OpenScore (CC0)
T:OpenScore (CC0)
T:OpenScore (CC0)
T:OpenScore (CC0)
T:OpenScore (CC0)
T:OpenScore (CC0)
T:OpenScore (CC0)
C:Charles Gounod
Z:Jean-Antoine de Baïf
Z:OpenScore (CC0)
%%score 1 { 2 | ( 3 4 ) }
L:1/8
Q:1/4=100
M:2/4
K:Bb
V:1 treble nm="Voice"
V:2 treble nm="Piano"
V:3 bass 
V:4 bass 
V:1
"^Andantino quasi Allegretto" z2 | z4 | z4 | z4 | z2!pp! B B | B2 A A | d2 G G | G c B G | %8
w: ||||Ô ma|bel- le re-|bel- le! Las!|que tu m'es cru-|
 G2 ^F d | ^c d =c d | =B d c _B | A3 A | G2 d d | f2 =e d | A A d d | f2 =e d | A2 A d | d f f c | %18
w: el- le, Ou|quand d'un doux sou-|ris, Lar- ron de|mes es-|prits, Ou quand|d'u- ne pa-|ro- le, Mi- gnar-|dè- te- ment|mol- le, Ou|quand d'un re- gard|
 _e d c B | c3 c | A4- | A2 z2 | z d d c | B G G2 | A z d d | d2 d d | e2 d B |!p! B c A A | d3 G | %29
w: d'yeux Fiè- re- ment|gra- ci-|eux, |_|Ou quand d'un|pe- tit ges-|te, Tout di-|vin, tout ce-|les- te, En|a- mou- reuse ar-|deur Tu|
 A A A (c/B/) | A4 | z B B !>!e- | e !>!e2 (d/c/) | d G c B |{AB} A3 A | G2 z2 | z4 | z4 | z4 | %39
w: plon- ges tout mon *|coeur|En a- mou-|* reuse ar- *|deur Tu plon- ges|tout mon|coeur!||||
 z2!pp! B B | B2 A A | d2 G G | G c B G | G2 ^F d | ^c d =c d | =B d c _B | A3 A | G z d d | %48
w: O ma|bel- le re-|bel- le! Las|que tu m'es cru-|el- le, Quand|la cui- sante ar-|deur Qui me bru-|le le|coeur Fait que|
 f2 =e d | A2 d d | f f =e d | A2 A d | d f f c | _e d c B | c3 c | A4- | A2 z2 | z d d c | %58
w: je te de-|man- de A|sa bru- lu- re|gran- de Un|ra- frai- chis- se-|ment D'un bai- ser|seu- le-|ment|_|Ô ma bel-|
 B G G2 | A z d2 | d d d d | e2 d B | B c A A | d3 G | A A A (c/B/) | A4 | z B B !>!e- | %67
w: le re be-|le! Las!|que tu m'es cru-|el- le Quand|d'un pe- tit bai-|ser Tu|ne veux m'a- pai- *|ser|Quand d'un pe-|
 e !>!e2 (d/c/) | d G c B |{AB} A3 A | G2 z2 | z4 | z4 | z4 | z2 B B | B B A2 | d2 G G | G c B G | %78
w: * tit bai- *|ser Tu ne veux|m'a- pai-|ser.||||Me puis-|sè–je un jour,|du- re! Ven-|ger de ton in-|
 G2 ^F d | ^c d =c d | =B d c _B | A3 A | G z d d | f2 =e d | A2 d d | f2 =e d | A2 A d | %87
w: ju- re, Mon|pe- tit maître A-|mour Te puisse ou-|trer un|jour Et pour|moi lan- gou-|reuse Il te|fasse a- mou-|reu- se, Comme|
"^cresc." d f f c |"^dim." e d c B | c3 c | A4- | A2 z2 | z d d c | B G G2 | A z d2 | d d d d | %96
w: il m'a lan- gou-|reux Pour toi fait|a- mou-|reux|_|A- lors par|ma ven- gean-|ce Tu|au- ras con- nais-|
 e2 d!p! B | B c A A | d3 G | A A A (c/B/) | A4 | z B B !>!e- | e !>!e2 (d/c/) | d G c B | %104
w: san- ce, Quel|mal fait du bai-|ser Un|a- mant re- fu- *|ser|Quel mal fait|_ du lai- *|ser Un a- mant|
{GB} A3 A | G2 z2 | z4 |[Q:1/4=96] z4[Q:1/4=92] |[Q:1/4=88] z4[Q:1/4=84] | z4 | z4 |] %111
w: re- fu-|ser.||||||
V:2
!p! z/ ((D/G/B/)) | z/ (C/G/B/) z/ (C/F/A/) | z/ (D/F/A/) z/ (B,/D/G/) | %3
 z/ (A,/E/G/) z/ (A,/D/^F/) | z/ (B,/D/F/) z/!pp! (D/G/B/) | z/ (D/F/B/) z/ (C/F/A/) | %6
 z/ (D/F/A/) z/ (B,/D/G/) | z/ (A,/E/G/) z/ (B,/D/G/) | z/ (B,/D/G/) z/ (A,/D/^F/) | %9
 z/ (A,/D/G/) z/ (A,/D/A/) | z/ (=B,/F/G/) z/ (C/E/G/) | z/ (A,/D/G/) z/ (A,/D/^F/) | %12
 z/ (B,/D/G/) z/ (B,/D/G/) | z/ (A,/D/F/) z/ (A,/D/G/) | z/ (A,/D/A/) z/ (A,/D/=E/) | %15
 z/ (A,/D/F/) z/ (A,/D/G/) | z/ (A,/D/A/) z/ (A,/D/F/) | z/"_cresc." (D/F/B/) z/ (C/F/A/) | %18
 z/ (E/G/c/) z/"_dim." (B,/E/B/) | z/ (C/F/A/) z/ (C/G/A/) | z/ (D/^F/A/) z/ (^C/G/A/) | %21
 z/ (D/^F/A/) z/ (F/c/d/) | z/ (G/B/d/) (^F/A/_E/c/) | z/ (D/G/B/) (C/E/B,/G/) | %24
 z/ (A,/D/^F/) z/ (D/F/A/) | z/!<(! (^F/A/d/) z/ (A/d/^f/)!<)! |!>(! z/ (c/^f/a/) z/ (B/d/g/)!>)! | %27
!p! z/ (C/G/B/) z/ (C/F/A/) | z/ (D/F/A/) z/ (B,/E/G/) | z/ (A,/E/G/) z/ (A,/D/G/) | %30
 z/ (A,/^C/G/) z/ (A,/D/^F/) |"_cresc." z/ (B,/D/G/) z/ (B,/E/G/) | %32
"_dim." z/ (A,/C/F/) z/ (A,/D/F/) | z/ (G,/B,/G/) z/ (C/E/G/) | z/ (A,/D/G/) z/ (A,/D/^F/) | %35
 z/ (B,/D/G/) z/ (D/G/B/) | z/ (C/G/B/) z/ (C/F/A/) | z/ (D/F/A/) z/ (B,/D/G/) | %38
 z/ (A,/E/G/) z/ (A,/D/^F/) | z/ (B,/D/G/) z/!pp! (D/G/B/) | z/ (D/F/B/) z/ (C/F/A/) | %41
 z/ (D/F/A/) z/ (B,/D/G/) | z/ (A,/E/G/) z/ (B,/D/G/) | z/ (A,/D/G/) z/ (A,/D/^F/) | %44
 z/ (A,/D/G/) z/ (A,/D/A/) | z/ (=B,/F/G/) z/ (C/E/G/) | z/ (A,/D/G/) z/ (A,/D/^F/) | %47
 z/ (B,/D/G/) z/ (B,/D/G/) | z/ (A,/D/F/) z/ (A,/D/G/) | z/ (A,/D/A/) z/ (A,/D/=E/) | %50
 z/ (A,/D/F/) z/ (A,/D/G/) | z/ (A,/D/A/) z/ (A,/D/F/) |"_cresc." z/ (D/F/B/) z/ (C/F/A/) | %53
 z/ (E/G/c/) z/"_dim." (B,/E/B/) | z/ (C/F/A/) z/ (C/G/A/) | z/ (D/^F/A/) z/ (^C/G/A/) | %56
 z/ (D/^F/A/) z/ (F/c/d/) | z/ (G/B/d/) (^F/A/_E/c/) | z/ (D/G/B/) (C/E/B,/G/) | %59
 z/ (A,/D/^F/) z/!<(! (D/F/A/) | z/ (^F/A/d/) z/ (A/d/f/)!<)! | z/!>(! (c/^f/a/) z/ (=B/d/g/)!>)! | %62
 z/ (C/G/B/) z/ (C/F/A/) | z/ (D/F/A/) z/ (B,/D/G/) | z/ (A,/E/G/) z/ (A,/D/G/) | %65
 z/ (A,/^C/G/) z/ (A,/D/^F/) |"_cresc." z/ (B,/D/G/) z/ (B,/E/G/) | z/ (A,/C/F/) z/ (A,/D/F/) | %68
"_dim." z/ (G,/B,/G/) z/ (C/E/G/) | z/ (A,/D/G/) z/ (A,/D/^F/) | z/ (B,/D/G/) z/ (D/G/B/) | %71
 z/ (C/G/B/) z/ (C/F/A/) | z/ (D/F/A/) z/ (B,/D/G/) | z/ (A,/E/G/) z/ (A,/D/^F/) | %74
 z/ (B,/D/G/)!pp! z/ (D/G/B/) | z/ (D/F/B/) z/ (C/F/A/) | z/ (D/F/A/) z/ (B,/D/G/) | %77
 z/ (A,/E/G/) z/ (B,/D/G/) | z/ (B,/D/G/) z/ (A,/D/^F/) | z/ (A,/D/G/) z/ (A,/D/A/) | %80
 z/ (=B,/F/G/) z/ (C/E/G/) | z/ (A,/D/G/) z/ (A,/D/^F/) | (B,/D/G/) z/ (B,/D/G/) z/ | %83
 (A,/D/F/) z/ (A,/D/G/) z/ | (A,/D/A/) z/ (A,/D/=E/) z/ | z/ (A,/D/F/) z/ (A,/D/G/) | %86
"_cresc." z/ (A,/D/A/) z/ (A,/D/F/) | z/ (D/F/B/) z/ (C/F/A/) | z/ (E/G/c/)"_dim." z/ (B,/E/d/) | %89
 z/ (C/F/A/) z/ (C/G/A/) | z/ (D/^F/A/)!p! z/ (^C/G/A/) | z/ (D/^F/A/) z/ (F/c/d/) | %92
 z/ (G/B/d/) (^F/A/_E/c/) | z/ (D/G/B/) (C/E/B,/G/) | z/ (A,/D/^F/) z/!<(! (D/F/A/) | %95
 z/ (^F/A/d/) z/ (A/d/!<)!^f/) | z/ (c/^f/a/) z/ (B/d/g/) |!p! z/ (C/G/B/) z/ (C/F/A/) | %98
 z/ (D/F/A/) z/ (B,/D/G/) | z/ (A,/E/G/) z/ (A,/D/G/) | z/ (A,/^C/G/) z/ (A,/D/^F/) | %101
 z/ (B,/D/G/) z/ (B,/E/G/) | z/ (A,/C/F/)"_dim." z/ (A,/D/F/) | z/ (G,/B,/G/) z/ (C/E/G/) | %104
!pp! z/ (A,/D/G/) z/ (A,/D/^F/) | z/ (B,/D/G/) z/ (D/G/B/) | z/ (E/G/c/) z/ (^F/A/d/) | %107
 z/"_dim." (G/B/d/) z/ (G/B/g/) | z/ (G/c/g/) z/ (A/d/^f/) | [Bdg] z!pp! [Bdg] z | %110
!pp! [Bdg] z z2 |] %111
V:3
 (G,F, | E,2 F,2) | (B,,2 E,D, | C,2 D,2 | G,,2 G,2) | (D,2 F,2 | B,,2 E,2 | C,2 G,,2 | %8
 D,,2) (D,2 | =E,2 ^F,2 | G,2 C,2 | D,2 D,,2 | G,,2 G,2 | D,2 =E,2 |!<(! F,2!<)! G,2 | %15
!pp!!<(! D,2)!<)! (=E,2 | F,2 D,2 | B,,2 F,2 | C,2 G,2 | F,2 E,2 | D,2 [A,,=E,]2 | [D,,D,]2 D,2) | %22
 z2 G,2- | G,2 G,2- | G,2 G,2- | G,2 G,2- | G,2 G,2 | (E,2 F,2 | D,2 E,2 | C,2 D,2 | =E,2 D,2) | %31
 (G,2 C,2 | F,2 B,,2 | E,2 C,2 | D,2) (D,,2 | G,,2 G,F, | E,2 F,2) | (B,,2 E,D, | C,2 D,2 | %39
 G,,2 G,2) | (D,2 F,2 | B,,2 E,2 | C,2 G,,2 | D,,2) (D,2 | =E,2 ^F,2 | G,2 C,2 | D,2 D,,2 | %47
 G,,2 G,2 | D,2)!<(! (=E,2 | F,2!<)! G,2 |!<(! D,2 =E,2 | F,2!<)! D,2 | B,,2 F,2 | C,2 G,2 | %54
 F,2 E,2 | D,2 [A,,=E,]2 | [D,,D,]2 D,2) | z2 G,2- | G,2 G,2- | G,2 G,2- | G,2 G,2- | G,2 G,2 | %62
 (E,2 F,2 | D,2 E,2 | C,2 D,2 | =E,2 D,2) | (G,2 C,2 | F,2 B,,2 | E,2 C,2 | D,2) (D,,2 | %70
 G,,2) (G,F, | E,2 F,2) | (B,,2 E,D, | C,2 D,2 | G,,2 G,2) | (D,2 F,2 | B,,2 E,2 | C,2 G,,2 | %78
 D,,2) (D,2 | =E,2 ^F,2 | G,2 C,2 | D,2 D,,2 | G,,2 G,2 | D,2!<(! =E,2 | F,2 G,2!<)! | %85
 D,2)!<(! (=E,2 | F,2 D,2!<)! | B,,2 F,2 | C,2 G,2 | F,2 E,2 | D,2 [A,,=E,]2 | [D,,D,]2 D,2) | %92
 z2 G,2- | G,2 G,2- | G,2 G,2- | G,2 G,2- | G,2 G,2 | (E,2 F,2 | D,2 E,2 | C,2 D,2 | =E,2 D,2 | %101
 G,2 C,2 | F,2 B,,2 | E,2 C,2) | (D,2 D,,2 | G,,2) (G,F, | E,2 D,2 | B,,2 G,,F,, | E,,2 D,,2) | %109
 G,,, z [G,,,D,,] z | [G,,,D,,] z z2 |] %111
V:4
 x2 | x4 | x4 | x4 | x4 | x4 | x4 | x4 | x4 | x4 | x4 | x4 | x4 | x4 | x4 | x4 | x4 | x4 | x4 | %19
 x4 | x4 | x4 | G,,4 | G,,4 | G,,4 | G,,4 | G,,4 | x4 | x4 | x4 | x4 | x4 | x4 | x4 | x4 | x4 | %36
 x4 | x4 | x4 | x4 | x4 | x4 | x4 | x4 | x4 | x4 | x4 | x4 | x4 | x4 | x4 | x4 | x4 | x4 | x4 | %55
 x4 | x4 | G,,4 | G,,4 | G,,4 | G,,4 | G,,4 | x4 | x4 | x4 | x4 | x4 | x4 | x4 | x4 | x4 | x4 | %72
 x4 | x4 | x4 | x4 | x4 | x4 | x4 | x4 | x4 | x4 | x4 | x4 | x4 | x4 | x4 | x4 | x4 | x4 | x4 | %91
 x4 | G,,4 | G,,4 | G,,4 | G,,4 | G,,4 | x4 | x4 | x4 | x4 | x4 | x4 | x4 | x4 | x4 | x4 | x4 | %108
 x4 | x4 | x4 |] %111

